16x16/apps/tagainijisho.svg

<svg xmlns="http://www.w3.org/2000/svg" width="16" height="16" version="1.1">
 <circle style="fill:#0061a7" cx="8" cy="8" r="8"/>
 <path style="fill:#f4f4f7" d="M 1.7636719 3 A 8 8 0 0 0 1.0800781 4 L 5.1054688 4 L 3.5761719 11 L 4.5996094 11 L 4.8183594 10 L 10.251953 10 L 9.9980469 12 L 5 12 L 3 12 L 1.0839844 12 A 8 8 0 0 0 1.7558594 13 L 14.236328 13 A 8 8 0 0 0 14.919922 12 L 11.005859 12 L 11.767578 6 L 5.6914062 6 L 6.1289062 4 L 14.916016 4 A 8 8 0 0 0 14.244141 3 L 1.7636719 3 z M 5.4726562 7 L 10.630859 7 L 10.378906 9 L 5.0371094 9 L 5.4726562 7 z"/>
</svg>

<svg xmlns="http://www.w3.org/2000/svg" width="16" height="16"><circle style="fill:#0061a7" cx="8" cy="8" r="8"/><path style="fill:#f4f4f7" d="M1.764 3a8 8 0 0 0-.684 1h4.025l-1.529 7H4.6l.218-1h5.434l-.254 2H1.084a8 8 0 0 0 .672 1h12.48a8 8 0 0 0 .684-1h-3.914l.762-6H5.69l.438-2h8.787a8 8 0 0 0-.672-1H1.764zm3.709 4h5.158l-.252 2H5.037l.436-2z"/></svg>
